assets/1. 1-F/Bookmark/Color/Bookmark-color.svg

<svg width="100%" height="100%" viewBox="0 0 32 32" fill="none" xmlns="http://www.w3.org/2000/svg">
<g filter="url(#filter0_ii_18_21265)">
<path fill-rule="evenodd" clip-rule="evenodd" d="M21.7813 2.69957C21.2737 2.19194 20.4506 2.19194 19.9429 2.69957L2.69891 19.9436C2.21689 20.4256 2.22162 21.2085 2.70938 21.6847C2.97842 21.9473 3.35321 22.0717 3.72586 22.022L9.34528 21.2735C10.1706 21.1636 10.8707 21.8761 10.7463 22.6993L9.90527 28.2656C9.84409 28.6705 9.98816 29.0793 10.2896 29.3564C10.7756 29.803 11.5272 29.7871 11.9939 29.3204L29.2788 12.0355C29.7865 11.5278 29.7865 10.7048 29.2788 10.1971L21.7813 2.69957ZM23.2859 10.7569C24.3786 10.7569 25.2644 9.85802 25.2644 8.74913C25.2644 7.64024 24.3786 6.74132 23.2859 6.74132C22.1932 6.74132 21.3074 7.64024 21.3074 8.74913C21.3074 9.85802 22.1932 10.7569 23.2859 10.7569Z" fill="url(#paint0_linear_18_21265)"/>
</g>
<g filter="url(#filter1_ii_18_21265)">
<path d="M18.9426 12.3385C19.3955 12.2141 19.8093 12.6348 19.6774 13.0856L19.2894 14.4113C19.2481 14.5526 19.2711 14.7048 19.3523 14.8276L20.1212 15.9899C20.385 16.3888 20.099 16.9209 19.6208 16.9209H18.2795C18.103 16.9209 17.9397 17.0139 17.8496 17.1656L17.2203 18.2251C16.9687 18.6488 16.3419 18.6053 16.1512 18.1509L15.5297 16.6702C15.4775 16.5458 15.3773 16.4478 15.2518 16.3985L13.8424 15.8437C13.3904 15.6658 13.3261 15.0526 13.7314 14.7848L14.852 14.0445C14.986 13.9559 15.0693 13.8084 15.0759 13.6479L15.1297 12.3464C15.1492 11.8739 15.6821 11.6086 16.0709 11.8779L17.1702 12.6396C17.2918 12.7239 17.4446 12.7499 17.5873 12.7107L18.9426 12.3385Z" fill="#FF85A2"/>
</g>
<rect x="24.2683" y="1.74133" width="1.00781" height="5.03125" rx="0.503906" fill="url(#paint1_linear_18_21265)"/>
<rect x="24.2683" y="1.74133" width="1.00781" height="5.03125" rx="0.503906" fill="url(#paint2_radial_18_21265)"/>
<rect width="1.00781" height="5.03125" rx="0.503906" transform="matrix(1.19249e-08 -1 -1 -1.19249e-08 30.2761 7.74915)" fill="url(#paint3_linear_18_21265)"/>
<rect width="1.00781" height="5.03125" rx="0.503906" transform="matrix(1.19249e-08 -1 -1 -1.19249e-08 30.2761 7.74915)" fill="url(#paint4_radial_18_21265)"/>
<g filter="url(#filter2_i_18_21265)">
<rect width="1.00781" height="1.59651" rx="0.503906" transform="matrix(-0.707107 -0.707107 -0.707107 0.707107 26.0699 6.66016)" fill="#CD7C3D"/>
</g>
<g filter="url(#filter3_f_18_21265)">
<rect width="0.273646" height="1.06359" rx="0.136823" transform="matrix(-0.707107 -0.707107 -0.707107 0.707107 25.7177 6.55298)" fill="url(#paint5_radial_18_21265)"/>
</g>
<g filter="url(#filter4_f_18_21265)">
<rect x="24.8387" y="2.05969" width="0.267334" height="4.39453" rx="0.133667" fill="url(#paint6_linear_18_21265)"/>
</g>
<g filter="url(#filter5_f_18_21265)">
<rect x="30.115" y="6.97791" width="0.267334" height="4.39453" rx="0.133667" transform="rotate(90 30.115 6.97791)" fill="url(#paint7_radial_18_21265)"/>
</g>
<defs>
<filter id="filter0_ii_18_21265" x="2.14045" y="2.31885" width="27.7191" height="27.5623" filterUnits="userSpaceOnUse" color-interpolation-filters="sRGB">
<feFlood flood-opacity="0" result="BackgroundImageFix"/>
<feBlend mode="normal" in="SourceGraphic" in2="BackgroundImageFix" result="shape"/>
<feColorMatrix in="SourceAlpha" type="matrix" values="0 0 0 0 0 0 0 0 0 0 0 0 0 0 0 0 0 0 127 0" result="hardAlpha"/>
<feOffset dx="-0.2" dy="0.2"/>
<feGaussianBlur stdDeviation="0.1"/>
<feComposite in2="hardAlpha" operator="arithmetic" k2="-1" k3="1"/>
<feColorMatrix type="matrix" values="0 0 0 0 1 0 0 0 0 0.384314 0 0 0 0 0.376471 0 0 0 1 0"/>
<feBlend mode="normal" in2="shape" result="effect1_innerShadow_18_21265"/>
<feColorMatrix in="SourceAlpha" type="matrix" values="0 0 0 0 0 0 0 0 0 0 0 0 0 0 0 0 0 0 127 0" result="hardAlpha"/>
<feOffset dx="0.2" dy="0.2"/>
<feGaussianBlur stdDeviation="0.2"/>
<feComposite in2="hardAlpha" operator="arithmetic" k2="-1" k3="1"/>
<feColorMatrix type="matrix" values="0 0 0 0 0.780392 0 0 0 0 0.215686 0 0 0 0 0.231373 0 0 0 1 0"/>
<feBlend mode="normal" in2="effect1_innerShadow_18_21265" result="effect2_innerShadow_18_21265"/>
</filter>
<filter id="filter1_ii_18_21265" x="12.962" y="11.3702" width="7.65977" height="7.1486" filterUnits="userSpaceOnUse" color-interpolation-filters="sRGB">
<feFlood flood-opacity="0" result="BackgroundImageFix"/>
<feBlend mode="normal" in="SourceGraphic" in2="BackgroundImageFix" result="shape"/>
<feColorMatrix in="SourceAlpha" type="matrix" values="0 0 0 0 0 0 0 0 0 0 0 0 0 0 0 0 0 0 127 0" result="hardAlpha"/>
<feOffset dx="0.4" dy="-0.4"/>
<feGaussianBlur stdDeviation="0.3"/>
<feComposite in2="hardAlpha" operator="arithmetic" k2="-1" k3="1"/>
<feColorMatrix type="matrix" values="0 0 0 0 1 0 0 0 0 0.592157 0 0 0 0 0.65098 0 0 0 1 0"/>
<feBlend mode="normal" in2="shape" result="effect1_innerShadow_18_21265"/>
<feColorMatrix in="SourceAlpha" type="matrix" values="0 0 0 0 0 0 0 0 0 0 0 0 0 0 0 0 0 0 127 0" result="hardAlpha"/>
<feOffset dx="-0.5"/>
<feGaussianBlur stdDeviation="0.375"/>
<feComposite in2="hardAlpha" operator="arithmetic" k2="-1" k3="1"/>
<feColorMatrix type="matrix" values="0 0 0 0 1 0 0 0 0 0.443137 0 0 0 0 0.52549 0 0 0 1 0"/>
<feBlend mode="normal" in2="effect1_innerShadow_18_21265" result="effect2_innerShadow_18_21265"/>
</filter>
<filter id="filter2_i_18_21265" x="24.4371" y="5.90625" width="1.42407" height="1.67407" filterUnits="userSpaceOnUse" color-interpolation-filters="sRGB">
<feFlood flood-opacity="0" result="BackgroundImageFix"/>
<feBlend mode="normal" in="SourceGraphic" in2="BackgroundImageFix" result="shape"/>
<feColorMatrix in="SourceAlpha" type="matrix" values="0 0 0 0 0 0 0 0 0 0 0 0 0 0 0 0 0 0 127 0" result="hardAlpha"/>
<feOffset dy="-0.25"/>
<feGaussianBlur stdDeviation="0.25"/>
<feComposite in2="hardAlpha" operator="arithmetic" k2="-1" k3="1"/>
<feColorMatrix type="matrix" values="0 0 0 0 0.796078 0 0 0 0 0.396078 0 0 0 0 0.329412 0 0 0 1 0"/>
<feBlend mode="normal" in2="shape" result="effect1_innerShadow_18_21265"/>
</filter>
<filter id="filter3_f_18_21265" x="24.5787" y="6.16614" width="1.33221" height="1.33221" filterUnits="userSpaceOnUse" color-interpolation-filters="sRGB">
<feFlood flood-opacity="0" result="BackgroundImageFix"/>
<feBlend mode="normal" in="SourceGraphic" in2="BackgroundImageFix" result="shape"/>
<feGaussianBlur stdDeviation="0.125" result="effect1_foregroundBlur_18_21265"/>
</filter>
<filter id="filter4_f_18_21265" x="24.5887" y="1.80969" width="0.767334" height="4.89453" filterUnits="userSpaceOnUse" color-interpolation-filters="sRGB">
<feFlood flood-opacity="0" result="BackgroundImageFix"/>
<feBlend mode="normal" in="SourceGraphic" in2="BackgroundImageFix" result="shape"/>
<feGaussianBlur stdDeviation="0.125" result="effect1_foregroundBlur_18_21265"/>
</filter>
<filter id="filter5_f_18_21265" x="25.4705" y="6.72791" width="4.89453" height="0.767334" filterUnits="userSpaceOnUse" color-interpolation-filters="sRGB">
<feFlood flood-opacity="0" result="BackgroundImageFix"/>
<feBlend mode="normal" in="SourceGraphic" in2="BackgroundImageFix" result="shape"/>
<feGaussianBlur stdDeviation="0.125" result="effect1_foregroundBlur_18_21265"/>
</filter>
<linearGradient id="paint0_linear_18_21265" x1="26.3405" y1="7.21008" x2="8.84045" y2="24.5226" gradientUnits="userSpaceOnUse">
<stop stop-color="#FF454E"/>
<stop offset="1" stop-color="#F0305C"/>
</linearGradient>
<linearGradient id="paint1_linear_18_21265" x1="25.2761" y1="4.80383" x2="24.2683" y2="4.80383" gradientUnits="userSpaceOnUse">
<stop stop-color="#CF8B51"/>
<stop offset="1" stop-color="#CB662E"/>
</linearGradient>
<radialGradient id="paint2_radial_18_21265" cx="0" cy="0" r="1" gradientUnits="userSpaceOnUse" gradientTransform="translate(25.2761 6.31946) rotate(139.604) scale(1.08496 0.777558)">
<stop offset="0.420812" stop-color="#CA6533"/>
<stop offset="1" stop-color="#CA6533" stop-opacity="0"/>
</radialGradient>
<linearGradient id="paint3_linear_18_21265" x1="1.00781" y1="3.0625" x2="0" y2="3.0625" gradientUnits="userSpaceOnUse">
<stop stop-color="#CE8149"/>
<stop offset="1" stop-color="#D46F51"/>
</linearGradient>
<radialGradient id="paint4_radial_18_21265" cx="0" cy="0" r="1" gradientUnits="userSpaceOnUse" gradientTransform="translate(0.820313 4.65442) rotate(134.215) scale(0.806619 0.376826)">
<stop stop-color="#CD6C36"/>
<stop offset="1" stop-color="#CD6C36" stop-opacity="0"/>
</radialGradient>
<radialGradient id="paint5_radial_18_21265" cx="0" cy="0" r="1" gradientUnits="userSpaceOnUse" gradientTransform="translate(0.136823 -0.136823) rotate(90) scale(0.884757 1.57771)">
<stop offset="0.134648" stop-color="#D99666"/>
<stop offset="1" stop-color="#D99666" stop-opacity="0"/>
</radialGradient>
<linearGradient id="paint6_linear_18_21265" x1="24.9724" y1="2.05969" x2="24.9724" y2="8.56946" gradientUnits="userSpaceOnUse">
<stop stop-color="#D99666"/>
<stop offset="1" stop-color="#D99666" stop-opacity="0"/>
</linearGradient>
<radialGradient id="paint7_radial_18_21265" cx="0" cy="0" r="1" gradientUnits="userSpaceOnUse" gradientTransform="translate(30.2487 6.97791) rotate(90) scale(0.813599 0.265655)">
<stop offset="0.134648" stop-color="#D99666"/>
<stop offset="1" stop-color="#D99666" stop-opacity="0"/>
</radialGradient>
</defs>
</svg>

<svg width="100%" height="100%" viewBox="0 0 32 32" xmlns="http://www.w3.org/2000/svg"><g filter="url(#a)"><path fill="url(#b)" fill-rule="evenodd" d="M21.781 2.7a1.3 1.3 0 0 0-1.838 0L2.699 19.944a1.224 1.224 0 0 0 1.027 2.078l5.62-.748a1.25 1.25 0 0 1 1.4 1.425l-.84 5.567a1.232 1.232 0 0 0 2.088 1.054l17.285-17.284a1.3 1.3 0 0 0 0-1.839zm1.505 8.057c1.093 0 1.978-.899 1.978-2.008s-.885-2.008-1.978-2.008-1.979.9-1.979 2.008.886 2.008 1.979 2.008" clip-rule="evenodd"/></g><g filter="url(#c)"><path fill="#FF85A2" d="M18.943 12.339a.6.6 0 0 1 .734.747l-.388 1.325a.5.5 0 0 0 .063.417l.77 1.162a.6.6 0 0 1-.501.93H18.28a.5.5 0 0 0-.43.246l-.63 1.06a.6.6 0 0 1-1.069-.075l-.621-1.48a.5.5 0 0 0-.278-.273l-1.41-.554a.6.6 0 0 1-.11-1.06l1.12-.74a.5.5 0 0 0 .224-.396l.054-1.302a.6.6 0 0 1 .94-.468l1.1.762a.5.5 0 0 0 .417.07z"/></g><rect width="1.008" height="5.031" x="24.268" y="1.741" fill="url(#d)" rx=".504"/><rect width="1.008" height="5.031" x="24.268" y="1.741" fill="url(#e)" rx=".504"/><rect width="1.008" height="5.031" fill="url(#f)" rx=".504" transform="matrix(0 -1 -1 0 30.276 7.75)"/><rect width="1.008" height="5.031" fill="url(#g)" rx=".504" transform="matrix(0 -1 -1 0 30.276 7.75)"/><g filter="url(#h)"><rect width="1.008" height="1.597" fill="#CD7C3D" rx=".504" transform="scale(-1 1)rotate(-45 -4.995 34.8)"/></g><g filter="url(#i)"><rect width=".274" height="1.064" fill="url(#j)" rx=".137" transform="scale(-1 1)rotate(-45 -4.949 34.32)"/></g><g filter="url(#k)"><rect width=".267" height="4.395" x="24.839" y="2.06" fill="url(#l)" rx=".134"/></g><g filter="url(#m)"><rect width=".267" height="4.395" x="30.115" y="6.978" fill="url(#n)" rx=".134" transform="rotate(90 30.115 6.978)"/></g><defs><filter id="a" width="27.719" height="27.562" x="2.14" y="2.319" color-interpolation-filters="sRGB" filterUnits="userSpaceOnUse"><feFlood flood-opacity="0" result="BackgroundImageFix"/><feBlend in="SourceGraphic" in2="BackgroundImageFix" result="shape"/><feColorMatrix in="SourceAlpha" result="hardAlpha" values="0 0 0 0 0 0 0 0 0 0 0 0 0 0 0 0 0 0 127 0"/><feOffset dx="-.2" dy=".2"/><feGaussianBlur stdDeviation=".1"/><feComposite in2="hardAlpha" k2="-1" k3="1" operator="arithmetic"/><feColorMatrix values="0 0 0 0 1 0 0 0 0 0.384314 0 0 0 0 0.376471 0 0 0 1 0"/><feBlend in2="shape" result="effect1_innerShadow_18_21265"/><feColorMatrix in="SourceAlpha" result="hardAlpha" values="0 0 0 0 0 0 0 0 0 0 0 0 0 0 0 0 0 0 127 0"/><feOffset dx=".2" dy=".2"/><feGaussianBlur stdDeviation=".2"/><feComposite in2="hardAlpha" k2="-1" k3="1" operator="arithmetic"/><feColorMatrix values="0 0 0 0 0.780392 0 0 0 0 0.215686 0 0 0 0 0.231373 0 0 0 1 0"/><feBlend in2="effect1_innerShadow_18_21265" result="effect2_innerShadow_18_21265"/></filter><filter id="c" width="7.66" height="7.149" x="12.962" y="11.37" color-interpolation-filters="sRGB" filterUnits="userSpaceOnUse"><feFlood flood-opacity="0" result="BackgroundImageFix"/><feBlend in="SourceGraphic" in2="BackgroundImageFix" result="shape"/><feColorMatrix in="SourceAlpha" result="hardAlpha" values="0 0 0 0 0 0 0 0 0 0 0 0 0 0 0 0 0 0 127 0"/><feOffset dx=".4" dy="-.4"/><feGaussianBlur stdDeviation=".3"/><feComposite in2="hardAlpha" k2="-1" k3="1" operator="arithmetic"/><feColorMatrix values="0 0 0 0 1 0 0 0 0 0.592157 0 0 0 0 0.65098 0 0 0 1 0"/><feBlend in2="shape" result="effect1_innerShadow_18_21265"/><feColorMatrix in="SourceAlpha" result="hardAlpha" values="0 0 0 0 0 0 0 0 0 0 0 0 0 0 0 0 0 0 127 0"/><feOffset dx="-.5"/><feGaussianBlur stdDeviation=".375"/><feComposite in2="hardAlpha" k2="-1" k3="1" operator="arithmetic"/><feColorMatrix values="0 0 0 0 1 0 0 0 0 0.443137 0 0 0 0 0.52549 0 0 0 1 0"/><feBlend in2="effect1_innerShadow_18_21265" result="effect2_innerShadow_18_21265"/></filter><filter id="h" width="1.424" height="1.674" x="24.437" y="5.906" color-interpolation-filters="sRGB" filterUnits="userSpaceOnUse"><feFlood flood-opacity="0" result="BackgroundImageFix"/><feBlend in="SourceGraphic" in2="BackgroundImageFix" result="shape"/><feColorMatrix in="SourceAlpha" result="hardAlpha" values="0 0 0 0 0 0 0 0 0 0 0 0 0 0 0 0 0 0 127 0"/><feOffset dy="-.25"/><feGaussianBlur stdDeviation=".25"/><feComposite in2="hardAlpha" k2="-1" k3="1" operator="arithmetic"/><feColorMatrix values="0 0 0 0 0.796078 0 0 0 0 0.396078 0 0 0 0 0.329412 0 0 0 1 0"/><feBlend in2="shape" result="effect1_innerShadow_18_21265"/></filter><filter id="i" width="1.332" height="1.332" x="24.579" y="6.166" color-interpolation-filters="sRGB" filterUnits="userSpaceOnUse"><feFlood flood-opacity="0" result="BackgroundImageFix"/><feBlend in="SourceGraphic" in2="BackgroundImageFix" result="shape"/><feGaussianBlur result="effect1_foregroundBlur_18_21265" stdDeviation=".125"/></filter><filter id="k" width=".767" height="4.895" x="24.589" y="1.81" color-interpolation-filters="sRGB" filterUnits="userSpaceOnUse"><feFlood flood-opacity="0" result="BackgroundImageFix"/><feBlend in="SourceGraphic" in2="BackgroundImageFix" result="shape"/><feGaussianBlur result="effect1_foregroundBlur_18_21265" stdDeviation=".125"/></filter><filter id="m" width="4.895" height=".767" x="25.471" y="6.728" color-interpolation-filters="sRGB" filterUnits="userSpaceOnUse"><feFlood flood-opacity="0" result="BackgroundImageFix"/><feBlend in="SourceGraphic" in2="BackgroundImageFix" result="shape"/><feGaussianBlur result="effect1_foregroundBlur_18_21265" stdDeviation=".125"/></filter><radialGradient id="e" cx="0" cy="0" r="1" gradientTransform="matrix(-.82629 .70313 -.5039 -.59218 25.276 6.32)" gradientUnits="userSpaceOnUse"><stop offset=".421" stop-color="#CA6533"/><stop offset="1" stop-color="#CA6533" stop-opacity="0"/></radialGradient><radialGradient id="g" cx="0" cy="0" r="1" gradientTransform="matrix(-.5625 .57813 -.27008 -.26278 .82 4.654)" gradientUnits="userSpaceOnUse"><stop stop-color="#CD6C36"/><stop offset="1" stop-color="#CD6C36" stop-opacity="0"/></radialGradient><radialGradient id="j" cx="0" cy="0" r="1" gradientTransform="matrix(0 .88476 -1.57771 0 .137 -.137)" gradientUnits="userSpaceOnUse"><stop offset=".135" stop-color="#D99666"/><stop offset="1" stop-color="#D99666" stop-opacity="0"/></radialGradient><radialGradient id="n" cx="0" cy="0" r="1" gradientTransform="matrix(0 .8136 -.26565 0 30.249 6.978)" gradientUnits="userSpaceOnUse"><stop offset=".135" stop-color="#D99666"/><stop offset="1" stop-color="#D99666" stop-opacity="0"/></radialGradient><linearGradient id="b" x1="26.34" x2="8.84" y1="7.21" y2="24.523" gradientUnits="userSpaceOnUse"><stop stop-color="#FF454E"/><stop offset="1" stop-color="#F0305C"/></linearGradient><linearGradient id="d" x1="25.276" x2="24.268" y1="4.804" y2="4.804" gradientUnits="userSpaceOnUse"><stop stop-color="#CF8B51"/><stop offset="1" stop-color="#CB662E"/></linearGradient><linearGradient id="f" x1="1.008" x2="0" y1="3.063" y2="3.063" gradientUnits="userSpaceOnUse"><stop stop-color="#CE8149"/><stop offset="1" stop-color="#D46F51"/></linearGradient><linearGradient id="l" x1="24.972" x2="24.972" y1="2.06" y2="8.569" gradientUnits="userSpaceOnUse"><stop stop-color="#D99666"/><stop offset="1" stop-color="#D99666" stop-opacity="0"/></linearGradient></defs></svg>
